; generated by Slic3r 1.33.8 on 2017-03-25 at 20:25:22

; external perimeters extrusion width = 0.45mm
; perimeters extrusion width = 0.45mm
; infill extrusion width = 0.45mm
; solid infill extrusion width = 0.45mm
; top infill extrusion width = 0.45mm

M107
M115 U3.0.9 ; tell printer latest fw version
M83  ; extruder relative mode
M104 S215 ; set extruder temp
M140 S55 ; set bed temp
M190 S55 ; wait for bed temp
M109 S215 ; wait for extruder temp
G28 W ; home all without mesh bed level
G80 ; mesh bed leveling
G1 Y-3.0 F1000.0 ; go outside pritn area
G1 X60.0 E9.0  F1000.0 ; intro line
G1 X100.0 E12.5  F1000.0 ; intro line
G21 ; set units to millimeters
G90 ; use absolute coordinates
M83 ; use relative distances for extrusion
G1 E-0.80000 F2100.00000
G1 Z0.200 F7200.000
G1 X113.847 Y94.457 F7200.000
G1 E0.80000 F2100.00000
M204 S1000
G1 F2100
G1 X114.195 Y94.082 E0.01604
G1 X114.582 Y93.747 E0.01604
G1 X114.997 Y93.458 E0.01587
G1 X115.446 Y93.213 E0.01604
G1 X115.913 Y93.018 E0.01587
G1 X116.404 Y92.874 E0.01604
G1 X116.907 Y92.783 E0.01604
G1 X117.417 Y92.747 E0.01604
G1 X132.844 Y92.758 E0.48370
G1 X133.256 Y92.806 E0.01300
G1 X133.662 Y92.890 E0.01300
G1 X134.055 Y93.007 E0.01283
G1 X134.440 Y93.160 E0.01300
G1 X134.806 Y93.343 E0.01283
G1 X135.160 Y93.559 E0.01300
G1 X135.493 Y93.806 E0.01300
G1 X135.803 Y94.081 E0.01300
G1 X136.124 Y94.423 E0.01469
G1 X136.412 Y94.799 E0.01486
G1 X136.662 Y95.202 E0.01486
G1 X136.870 Y95.627 E0.01486
G1 X137.034 Y96.072 E0.01486
G1 X137.154 Y96.530 E0.01486
G1 X137.228 Y96.998 E0.01486
G1 X137.254 Y97.471 E0.01486
G1 X137.242 Y112.844 E0.48201
G1 X137.194 Y113.251 E0.01283
G1 X137.111 Y113.657 E0.01300
G1 X136.995 Y114.049 E0.01283
G1 X136.842 Y114.435 E0.01300
G1 X136.660 Y114.802 E0.01283
G1 X136.444 Y115.155 E0.01300
G1 X136.201 Y115.485 E0.01283
G1 X135.926 Y115.796 E0.01300
G1 X135.581 Y116.120 E0.01486
G1 X135.206 Y116.409 E0.01486
G1 X134.803 Y116.659 E0.01486
G1 X134.378 Y116.868 E0.01486
G1 X133.934 Y117.033 E0.01486
G1 X133.475 Y117.153 E0.01486
G1 X133.007 Y117.227 E0.01486
G1 X132.529 Y117.254 E0.01503
G1 X117.156 Y117.242 E0.48201
G1 X116.749 Y117.194 E0.01283
G1 X116.343 Y117.111 E0.01300
G1 X115.951 Y116.995 E0.01283
G1 X115.565 Y116.842 E0.01300
G1 X115.198 Y116.660 E0.01283
G1 X114.845 Y116.444 E0.01300
G1 X114.515 Y116.201 E0.01283
G1 X114.204 Y115.926 E0.01300
G1 X113.887 Y115.590 E0.01452
G1 X113.600 Y115.219 E0.01469
G1 X113.351 Y114.822 E0.01469
G1 X113.143 Y114.402 E0.01469
G1 X112.977 Y113.964 E0.01469
G1 X112.855 Y113.512 E0.01469
G1 X112.778 Y113.055 E0.01452
G1 X112.747 Y112.588 E0.01469
G1 X112.754 Y97.220 E0.48185
G1 X112.790 Y96.850 E0.01165
G1 X112.854 Y96.490 E0.01148
G1 X112.948 Y96.130 E0.01165
G1 X113.068 Y95.779 E0.01165
G1 X113.214 Y95.443 E0.01148
G1 X113.388 Y95.114 E0.01165
G1 X113.587 Y94.800 E0.01165
G1 X113.809 Y94.503 E0.01163
G1 X114.097 Y94.747 F7200.000
G1 F2100
G1 X114.416 Y94.394 E0.01490
G1 X114.770 Y94.078 E0.01490
G1 X115.162 Y93.800 E0.01506
G1 X115.577 Y93.568 E0.01490
G1 X116.015 Y93.383 E0.01490
G1 X116.470 Y93.246 E0.01490
G1 X116.942 Y93.159 E0.01506
G1 X117.416 Y93.124 E0.01490
G1 X132.794 Y93.133 E0.48217
G1 X133.174 Y93.175 E0.01199
G1 X133.549 Y93.251 E0.01199
G1 X133.916 Y93.358 E0.01199
G1 X134.272 Y93.498 E0.01199
G1 X134.615 Y93.668 E0.01199
G1 X134.945 Y93.870 E0.01215
G1 X135.253 Y94.097 E0.01199
G1 X135.539 Y94.350 E0.01199
G1 X135.836 Y94.667 E0.01361
G1 X136.101 Y95.011 E0.01361
G1 X136.329 Y95.380 E0.01361
G1 X136.522 Y95.774 E0.01377
G1 X136.674 Y96.181 E0.01361
G1 X136.785 Y96.606 E0.01377
G1 X136.852 Y97.035 E0.01361
G1 X136.877 Y97.473 E0.01377
G1 X136.867 Y112.794 E0.48039
G1 X136.825 Y113.174 E0.01199
G1 X136.749 Y113.549 E0.01199
G1 X136.643 Y113.911 E0.01183
G1 X136.504 Y114.267 E0.01199
G1 X136.335 Y114.610 E0.01199
G1 X136.136 Y114.937 E0.01199
G1 X135.910 Y115.245 E0.01199
G1 X135.657 Y115.532 E0.01199
G1 X135.341 Y115.830 E0.01361
G1 X134.993 Y116.098 E0.01377
G1 X134.625 Y116.327 E0.01361
G1 X134.231 Y116.520 E0.01377
G1 X133.819 Y116.674 E0.01377
G1 X133.394 Y116.785 E0.01377
G1 X132.965 Y116.852 E0.01361
G1 X132.527 Y116.877 E0.01377
G1 X117.206 Y116.867 E0.48039
G1 X116.826 Y116.825 E0.01199
G1 X116.451 Y116.749 E0.01199
G1 X116.089 Y116.643 E0.01183
G1 X115.733 Y116.504 E0.01199
G1 X115.390 Y116.335 E0.01199
G1 X115.063 Y116.136 E0.01199
G1 X114.755 Y115.910 E0.01199
G1 X114.468 Y115.657 E0.01199
G1 X114.174 Y115.345 E0.01345
G1 X113.908 Y115.002 E0.01361
G1 X113.681 Y114.638 E0.01345
G1 X113.490 Y114.254 E0.01345
G1 X113.337 Y113.853 E0.01345
G1 X113.225 Y113.440 E0.01345
G1 X113.153 Y113.012 E0.01361
G1 X113.124 Y112.584 E0.01345
G1 X113.129 Y97.268 E0.48023
G1 X113.160 Y96.933 E0.01053
G1 X113.216 Y96.602 E0.01053
G1 X113.298 Y96.276 E0.01053
G1 X113.404 Y95.957 E0.01053
G1 X113.534 Y95.648 E0.01053
G1 X113.688 Y95.349 E0.01053
G1 X113.864 Y95.063 E0.01053
G1 X114.060 Y94.794 E0.01043
G1 F5760
G1 X114.416 Y94.394 E-0.18536
G1 F5760
G1 X114.770 Y94.078 E-0.16462
G1 F5760
G1 X115.162 Y93.800 E-0.16641
G1 F5760
G1 X115.577 Y93.568 E-0.16462
G1 F5760
G1 X115.787 Y93.479 E-0.07899
G1 E-0.04000 F2100.00000
G1 X113.918 Y96.016 F7200.000
G1 E0.80000 F2100.00000
G1 F2100
G1 X116.016 Y93.918 E0.09305
G1 X133.984 Y93.918 E0.56336
G1 X136.082 Y96.016 E0.09305
G1 X136.082 Y113.984 E0.56336
G1 X133.984 Y116.082 E0.09305
G1 X116.016 Y116.082 E0.56336
G1 X113.918 Y113.984 E0.09305
G1 X113.918 Y96.076 E0.56148
G1 X114.295 Y96.172 F7200.000
G1 F2100
G1 X116.172 Y94.295 E0.08325
G1 X133.828 Y94.295 E0.55357
G1 X135.705 Y96.172 E0.08325
G1 X135.705 Y113.828 E0.55357
G1 X133.828 Y115.705 E0.08325
G1 X116.172 Y115.705 E0.55357
G1 X114.295 Y113.828 E0.08325
G1 X114.295 Y96.232 E0.55169
G1 X114.672 Y96.329 F7200.000
G1 F2100
G1 X116.329 Y94.672 E0.07346
G1 X133.671 Y94.672 E0.54377
G1 X135.328 Y96.329 E0.07346
G1 X135.328 Y113.671 E0.54377
G1 X133.671 Y115.328 E0.07346
G1 X116.329 Y115.328 E0.54377
G1 X114.672 Y113.671 E0.07346
G1 X114.672 Y96.389 E0.54189
G1 X115.049 Y96.485 F7200.000
G1 F2100
G1 X116.485 Y95.049 E0.06366
G1 X133.515 Y95.049 E0.53398
G1 X134.951 Y96.485 E0.06366
G1 X134.951 Y113.515 E0.53398
G1 X133.515 Y114.951 E0.06366
G1 X116.485 Y114.951 E0.53398
G1 X115.049 Y113.515 E0.06366
G1 X115.049 Y96.545 E0.53210
G1 X115.426 Y96.641 F7200.000
G1 F2100
G1 X116.641 Y95.426 E0.05387
G1 X133.359 Y95.426 E0.52418
G1 X134.574 Y96.641 E0.05387
G1 X134.574 Y113.359 E0.52418
G1 X133.359 Y114.574 E0.05387
G1 X116.641 Y114.574 E0.52418
G1 X115.426 Y113.359 E0.05387
G1 X115.426 Y96.701 E0.52230
G1 X115.803 Y96.797 F7200.000
G1 F2100
G1 X116.797 Y95.803 E0.04408
G1 X133.203 Y95.803 E0.51439
G1 X134.197 Y96.797 E0.04408
G1 X134.197 Y113.203 E0.51439
G1 X133.203 Y114.197 E0.04408
G1 X116.797 Y114.197 E0.51439
G1 X115.803 Y113.203 E0.04408
G1 X115.803 Y96.857 E0.51251
G1 X116.180 Y96.953 F7200.000
G1 F2100
G1 X116.953 Y96.180 E0.03428
G1 X133.047 Y96.180 E0.50460
G1 X133.820 Y96.953 E0.03428
G1 X133.820 Y113.047 E0.50460
G1 X133.047 Y113.820 E0.03428
G1 X116.953 Y113.820 E0.50460
G1 X116.180 Y113.047 E0.03428
G1 X116.180 Y97.013 E0.50271
G1 X116.557 Y97.110 F7200.000
G1 F2100
G1 X117.110 Y96.557 E0.02449
G1 X132.890 Y96.557 E0.49480
G1 X133.443 Y97.110 E0.02449
G1 X133.443 Y112.890 E0.49480
G1 X132.890 Y113.443 E0.02449
G1 X117.110 Y113.443 E0.49480
G1 X116.557 Y112.890 E0.02449
G1 X116.557 Y97.170 E0.49292
G1 X116.934 Y97.266 F7200.000
G1 F2100
G1 X117.266 Y96.934 E0.01469
G1 X132.734 Y96.934 E0.48501
G1 X133.066 Y97.266 E0.01469
G1 X133.066 Y112.734 E0.48501
G1 X132.734 Y113.066 E0.01469
G1 X117.266 Y113.066 E0.48501
G1 X116.934 Y112.734 E0.01469
G1 X116.934 Y97.326 E0.48313
G1 X117.311 Y97.422 F7200.000
G1 F2100
G1 X117.422 Y97.311 E0.00490
G1 X132.578 Y97.311 E0.47521
G1 X132.689 Y97.422 E0.00490
G1 X132.689 Y112.578 E0.47521
G1 X132.578 Y112.689 E0.00490
G1 X117.422 Y112.689 E0.47521
G1 X117.311 Y112.578 E0.00490
G1 X117.311 Y97.482 E0.47333
G1 X117.710 Y97.710 F7200.000
G1 F1050
G1 X132.290 Y97.710 E0.45715
G1 X132.290 Y112.290 E0.45715
G1 X117.710 Y112.290 E0.45715
G1 X117.710 Y97.770 E0.45526
G1 X118.096 Y97.814 F7200.000
G1 X118.087 Y98.087 F7200.000
G1 F1680
G1 X131.913 Y98.087 E0.43350
G1 X131.913 Y111.913 E0.43350
G1 X118.087 Y111.913 E0.43350
G1 X118.087 Y98.147 E0.43162
G1 X118.464 Y98.464 F7200.000
G1 F1680
G1 X131.536 Y98.464 E0.40985
G1 X131.536 Y111.536 E0.40985
G1 X118.464 Y111.536 E0.40985
G1 X118.464 Y98.524 E0.40797
G1 X118.841 Y98.841 F7200.000
G1 F1680
G1 X131.159 Y98.841 E0.38621
G1 X131.159 Y111.159 E0.38621
G1 X118.841 Y111.159 E0.38621
G1 X118.841 Y98.901 E0.38433
G1 F5760
G1 X121.035 Y98.891 E-0.76000
G1 E-0.04000 F2100.00000
G1 X123.313 Y102.274 F7200.000
G1 E0.80000 F2100.00000
G1 F840
G1 X123.480 Y102.072 E0.00821
G1 X123.671 Y101.893 E0.00821
G1 X123.883 Y101.739 E0.00821
G1 X124.112 Y101.613 E0.00821
G1 X124.356 Y101.517 E0.00821
G1 X124.609 Y101.452 E0.00821
G1 X124.869 Y101.419 E0.00821
G1 X125.131 Y101.419 E0.00821
G1 X125.391 Y101.452 E0.00821
G1 X125.644 Y101.517 E0.00821
G1 X125.888 Y101.613 E0.00821
G1 X126.117 Y101.739 E0.00821
G1 X126.329 Y101.893 E0.00821
G1 X126.520 Y102.072 E0.00821
G1 X126.687 Y102.274 E0.00821
G1 X126.827 Y102.495 E0.00821
G1 X126.939 Y102.732 E0.00821
G1 X127.020 Y102.981 E0.00821
G1 X127.069 Y103.239 E0.00821
G1 X127.085 Y103.500 E0.00821
G1 X127.069 Y103.761 E0.00821
G1 X127.020 Y104.019 E0.00821
G1 X126.939 Y104.268 E0.00821
G1 X126.827 Y104.505 E0.00821
G1 X126.687 Y104.726 E0.00821
G1 X126.520 Y104.928 E0.00821
G1 X126.329 Y105.107 E0.00821
G1 X126.117 Y105.261 E0.00821
G1 X125.888 Y105.387 E0.00821
G1 X125.644 Y105.483 E0.00821
G1 X125.391 Y105.548 E0.00821
G1 X125.131 Y105.581 E0.00822
G1 X124.864 Y105.581 E0.00837
G1 X124.609 Y105.548 E0.00804
G1 X124.355 Y105.483 E0.00822
G1 X124.107 Y105.384 E0.00837
G1 X123.883 Y105.261 E0.00804
G1 X123.671 Y105.107 E0.00821
G1 X123.480 Y104.928 E0.00821
G1 X123.316 Y104.730 E0.00804
G1 X123.173 Y104.505 E0.00837
G1 X123.061 Y104.268 E0.00822
G1 X122.980 Y104.019 E0.00821
G1 X122.931 Y103.761 E0.00821
G1 X122.915 Y103.500 E0.00821
G1 X122.931 Y103.238 E0.00822
G1 X122.981 Y102.977 E0.00833
G1 X123.061 Y102.732 E0.00808
G1 X123.173 Y102.495 E0.00821
G1 X123.281 Y102.325 E0.00633
G1 X123.206 Y102.035 F7200.000
G1 X123.007 Y102.052 F7200.000
G1 F840
G1 X123.204 Y101.814 E0.00970
G1 X123.430 Y101.602 E0.00970
G1 X123.680 Y101.420 E0.00970
G1 X123.951 Y101.271 E0.00970
G1 X124.239 Y101.157 E0.00970
G1 X124.538 Y101.080 E0.00970
G1 X124.845 Y101.042 E0.00970
G1 X125.155 Y101.042 E0.00970
G1 X125.462 Y101.080 E0.00970
G1 X125.761 Y101.157 E0.00970
G1 X126.049 Y101.271 E0.00970
G1 X126.320 Y101.420 E0.00970
G1 X126.570 Y101.602 E0.00970
G1 X126.796 Y101.814 E0.00970
G1 X126.993 Y102.052 E0.00970
G1 X127.159 Y102.313 E0.00970
G1 X127.290 Y102.593 E0.00970
G1 X127.386 Y102.887 E0.00970
G1 X127.444 Y103.191 E0.00970
G1 X127.463 Y103.500 E0.00970
G1 X127.444 Y103.809 E0.00970
G1 X127.386 Y104.113 E0.00970
G1 X127.290 Y104.407 E0.00970
G1 X127.159 Y104.687 E0.00970
G1 X126.993 Y104.948 E0.00970
G1 X126.796 Y105.186 E0.00970
G1 X126.570 Y105.398 E0.00970
G1 X126.320 Y105.580 E0.00970
G1 X126.049 Y105.729 E0.00970
G1 X125.761 Y105.843 E0.00970
G1 X125.462 Y105.920 E0.00970
G1 X125.154 Y105.958 E0.00972
G1 X124.839 Y105.958 E0.00986
G1 X124.538 Y105.920 E0.00951
G1 X124.238 Y105.842 E0.00972
G1 X123.946 Y105.726 E0.00986
G1 X123.680 Y105.580 E0.00951
G1 X123.430 Y105.398 E0.00970
G1 X123.204 Y105.186 E0.00970
G1 X123.011 Y104.952 E0.00951
G1 X122.842 Y104.687 E0.00986
G1 X122.710 Y104.407 E0.00972
G1 X122.614 Y104.113 E0.00970
G1 X122.556 Y103.809 E0.00970
G1 X122.537 Y103.500 E0.00970
G1 X122.556 Y103.191 E0.00972
G1 X122.616 Y102.883 E0.00982
G1 X122.710 Y102.593 E0.00956
G1 X122.841 Y102.313 E0.00970
G1 X122.975 Y102.103 E0.00782
G1 X122.702 Y101.830 F7200.000
G1 F840
G1 X122.929 Y101.555 E0.01119
G1 X123.189 Y101.311 E0.01119
G1 X123.478 Y101.101 E0.01119
G1 X123.790 Y100.929 E0.01119
G1 X124.122 Y100.798 E0.01119
G1 X124.468 Y100.709 E0.01119
G1 X124.822 Y100.665 E0.01119
G1 X125.178 Y100.665 E0.01119
G1 X125.532 Y100.709 E0.01119
G1 X125.878 Y100.798 E0.01119
G1 X126.210 Y100.929 E0.01119
G1 X126.522 Y101.101 E0.01119
G1 X126.811 Y101.311 E0.01119
G1 X127.071 Y101.555 E0.01119
G1 X127.298 Y101.830 E0.01119
G1 X127.490 Y102.131 E0.01119
G1 X127.642 Y102.454 E0.01119
G1 X127.752 Y102.793 E0.01119
G1 X127.819 Y103.144 E0.01119
G1 X127.841 Y103.500 E0.01119
G1 X127.819 Y103.856 E0.01119
G1 X127.752 Y104.207 E0.01119
G1 X127.642 Y104.546 E0.01119
G1 X127.490 Y104.869 E0.01119
G1 X127.298 Y105.170 E0.01119
G1 X127.071 Y105.445 E0.01119
G1 X126.811 Y105.689 E0.01119
G1 X126.522 Y105.899 E0.01119
G1 X126.210 Y106.071 E0.01119
G1 X125.878 Y106.202 E0.01119
G1 X125.532 Y106.291 E0.01119
G1 X125.177 Y106.336 E0.01123
G1 X124.815 Y106.335 E0.01135
G1 X124.468 Y106.291 E0.01098
G1 X124.121 Y106.202 E0.01123
G1 X123.785 Y106.068 E0.01135
G1 X123.478 Y105.899 E0.01098
G1 X123.189 Y105.689 E0.01119
G1 X122.929 Y105.445 E0.01119
G1 X122.706 Y105.175 E0.01098
G1 X122.511 Y104.870 E0.01135
G1 X122.358 Y104.546 E0.01123
G1 X122.248 Y104.207 E0.01119
G1 X122.181 Y103.856 E0.01119
G1 X122.159 Y103.500 E0.01119
G1 X122.181 Y103.143 E0.01122
G1 X122.250 Y102.789 E0.01131
G1 X122.358 Y102.454 E0.01103
G1 X122.510 Y102.131 E0.01119
G1 X122.669 Y101.881 E0.00931
G1 X122.396 Y101.608 F7200.000
G1 F840
G1 X122.654 Y101.297 E0.01267
G1 X122.948 Y101.020 E0.01267
G1 X123.275 Y100.782 E0.01267
G1 X123.629 Y100.587 E0.01268
G1 X124.005 Y100.439 E0.01267
G1 X124.397 Y100.338 E0.01267
G1 X124.798 Y100.287 E0.01267
G1 X125.202 Y100.287 E0.01267
G1 X125.603 Y100.338 E0.01267
G1 X125.995 Y100.439 E0.01267
G1 X126.371 Y100.587 E0.01267
G1 X126.725 Y100.782 E0.01268
G1 X127.052 Y101.020 E0.01267
G1 X127.346 Y101.297 E0.01267
G1 X127.604 Y101.608 E0.01267
G1 X127.821 Y101.949 E0.01267
G1 X127.993 Y102.315 E0.01268
G1 X128.118 Y102.699 E0.01267
G1 X128.193 Y103.097 E0.01267
G1 X128.219 Y103.500 E0.01267
G1 X128.194 Y103.903 E0.01268
G1 X128.118 Y104.300 E0.01267
G1 X127.993 Y104.685 E0.01267
G1 X127.821 Y105.051 E0.01267
G1 X127.604 Y105.392 E0.01267
G1 X127.346 Y105.703 E0.01267
G1 X127.052 Y105.980 E0.01267
G1 X126.725 Y106.218 E0.01267
G1 X126.371 Y106.413 E0.01267
G1 X125.995 Y106.561 E0.01268
G1 X125.603 Y106.662 E0.01267
G1 X125.200 Y106.713 E0.01273
G1 X124.791 Y106.712 E0.01284
G1 X124.397 Y106.662 E0.01245
G1 X124.004 Y106.561 E0.01273
G1 X123.623 Y106.409 E0.01284
G1 X123.275 Y106.218 E0.01245
G1 X122.948 Y105.980 E0.01267
G1 X122.654 Y105.703 E0.01267
G1 X122.400 Y105.397 E0.01245
G1 X122.180 Y105.052 E0.01284
G1 X122.007 Y104.685 E0.01273
G1 X121.882 Y104.300 E0.01267
G1 X121.806 Y103.903 E0.01267
G1 X121.781 Y103.500 E0.01267
G1 X121.807 Y103.095 E0.01272
G1 X121.884 Y102.694 E0.01280
G1 X122.007 Y102.315 E0.01251
G1 X122.179 Y101.949 E0.01268
G1 X122.364 Y101.659 E0.01079
G1 F5760
G1 X122.654 Y101.297 E-0.16064
G1 F5760
G1 X122.948 Y101.020 E-0.14001
G1 F5760
G1 X123.275 Y100.782 E-0.14000
G1 F5760
G1 X123.629 Y100.587 E-0.14002
G1 F5760
G1 X124.005 Y100.439 E-0.14001
G1 F5760
G1 X124.115 Y100.410 E-0.03932
G1 E-0.04000 F2100.00000
G1 X126.412 Y100.482 F7200.000
G1 E0.80000 F2100.00000
G1 F1680
G1 X125.054 Y99.124 E0.06088
G1 X124.515 Y99.124 E0.01709
G1 X125.421 Y100.030 E0.04061
G1 X125.220 Y100.005 E0.00641
G1 X124.856 Y100.005 E0.01153
G1 X123.976 Y99.124 E0.03947
G1 X123.437 Y99.124 E0.01709
G1 X124.369 Y100.057 E0.04180
G1 X123.938 Y100.164 E0.01410
G1 X122.897 Y99.124 E0.04662
G1 X122.358 Y99.124 E0.01709
G1 X123.549 Y100.315 E0.05338
G1 X123.198 Y100.502 E0.01263
G1 X121.819 Y99.124 E0.06178
G1 X121.280 Y99.124 E0.01709
G1 X122.878 Y100.721 E0.07160
G1 X122.588 Y100.970 E0.01212
G1 X120.741 Y99.124 E0.08276
G1 X120.202 Y99.124 E0.01709
G1 X122.326 Y101.248 E0.09522
G1 X122.094 Y101.555 E0.01220
G1 X119.663 Y99.124 E0.10898
G1 X119.124 Y99.124 E0.01708
G1 X121.893 Y101.893 E0.12412
G1 X121.726 Y102.265 E0.01292
G1 X119.124 Y99.663 E0.11663
G1 X119.124 Y100.202 E0.01709
G1 X121.599 Y102.677 E0.11094
